!!!COM: Schiørring, Niels
!!!CDT: 1743-1798
!!!OPR@@DA: Choral-Bog
!!!ONM: 17
!!!OTL@@DA: Et lidet Barn ſaa lyſteligt
**kern	**fb	**kern	**kern	**kern	**kern	**kern	**kern	**kern
*part6	*part6	*part6	*part5	*part5	*part4	*part3	*part2	*part1
*staff8	*	*staff7	*staff6	*staff5	*staff4	*staff3	*staff2	*staff1
*clefF4	*	*clefC1	*clefF4	*clefC1	*clefF4	*clefC4	*clefC3	*clefC1
*mclefF4	*	*mclefG2	*mclefF4	*mclefG2	*mclefF4	*mclefGv2	*mclefG2	*mclefG2
*k[f#]	*	*k[f#]	*k[f#]	*k[f#]	*k[f#]	*k[f#]	*k[f#]	*k[f#]
*G:	*	*G:	*G:	*G:	*G:	*G:	*G:	*G:
*M4/4	*	*M4/4	*M4/4	*M4/4	*M4/4	*M4/4	*M4/4	*M4/4
*met(c)	*	*met(c)	*met(c)	*met(c)	*met(c)	*met(c)	*met(c)	*met(c)
*MM180	*	*MM180	*MM180	*MM180	*MM180	*MM180	*MM180	*MM180
*	*	*	*^	*^	*	*	*	*
2G	.	2g	2B	2G	2g	2d	2G	2B	2d	2g
=1	=1	=1	=1	=1	=1	=1	=1	=1	=1	=1
2E	.	2g	2B	2E	2g	2e	2E	2B	2e	2g
2BB	6	2g	[2G	2BB	2g	2d	2BB	2d	[2g	2g
=2	=2	=2	=2	=2	=2	=2	=2	=2	=2	=2
2AA	7	2a	4G]	2AA	2a	2c	2AA	2c	(4g]	2a
.	.	.	4F#	.	.	.	.	.	4f#)	.
2GG	6	2b	2G	2GG	2b	2d	2GG	2d	2g	2b
=3	=3	=3	=3	=3	=3	=3	=3	=3	=3	=3
2C	.	4cc	2G	2C	4cc	2e	2C	2e	2g	(4cc
.	.	4b	.	.	4b	.	.	.	.	4b)
2D	.	2a	4F#	2D	2a	2f#	2D	2A	2f#	2a
.	.	.	4c	.	.	.	.	.	.	.
=4	=4	=4	=4	=4	=4	=4	=4	=4	=4	=4
2GG	.	2g	2ryy	2GG	2B	2d	2GG	2B	2g	2g
2G	.	2b	2B	2G	2b	2d	2G	2d	2d	2b
=5	=5	=5	=5	=5	=5	=5	=5	=5	=5	=5
2F#	5	2a	2c	2F#	2a	1d	2F#	2c	2d	2a
2G	.	4g	2B	2G	4g	.	2G	2B	2d	(4g
.	.	4f#	.	.	4f#	.	.	.	.	4f#)
=6	=6	=6	=6	=6	=6	=6	=6	=6	=6	=6
2C	.	2e	2G	2C	2e	1c	2C	2G	2c	2e
2AA	6	2f#	2A	2AA	2f#	.	2AA	2A	2c	2f#
=7	=7	=7	=7	=7	=7	=7	=7	=7	=7	=7
4BB	6	2g	2G	4BB	2g	1d	(4BB	(2G	(2d	(2g
4GG	.	.	.	4GG	.	.	4GG	.	.	.
2D	.	2a	4F#	2D	2a	.	2D)	2F#)	2c)	2a)
.	.	.	4c	.	.	.	.	.	.	.
=	=	=	=	=	=	=	=	=	=	=
2G	.	2g	2B	2G	2g	2d	2G	2G	2B	2g
=8:|!	=8:|!	=8:|!	=8:|!	=8:|!	=8:|!	=8:|!	=8:|!	=8:|!	=8:|!	=8:|!
2B	6	2g	2d	2B	2g	2g	2B	2d	2g	2g
=9	=9	=9	=9	=9	=9	=9	=9	=9	=9	=9
2F#	5	2dd	2c	2F#	2dd	2a	2F#	2c	2a	2dd
2G	.	2dd	2B	2G	2dd	2g	2G	2B	2g	2dd
=10	=10	=10	=10	=10	=10	=10	=10	=10	=10	=10
2C	.	2ee	2c	2C	2ee	2g	2C	2c	2g	2ee
2D	.	2dd	2A	2D	2dd	2f#	2D	2A	2f#	2dd
=11	=11	=11	=11	=11	=11	=11	=11	=11	=11	=11
2G	.	2b	2G	2G	2b	2d	2G	2G	2d	2b
2E	6	2cc#X	2G	2E	2cc#X	2g	2E	2G	2e	2cc#X
=12	=12	=12	=12	=12	=12	=12	=12	=12	=12	=12
2D	.	2dd	2A	2D	2dd	2f#	2D	2A	2f#	2dd
2Cni	2	2dd	2A	2Cni	2dd	2f#	2C	2A	2f#	2dd
=13	=13	=13	=13	=13	=13	=13	=13	=13	=13	=13
*^	*	*	*	*	*	*	*	*	*	*
1ryy	2BB	6	2dd	1G	2BB	2dd	2g	2BB	2G	2g	2dd
.	2GG	.	2dd	.	2GG	2dd	2b	2GG	2B	2g	2dd
=14	=14	=14	=14	=14	=14	=14	=14	=14	=14	=14	=14
1ryy	2C	.	2ee	2G	2C	2ee	2cc	2C	2c	2g	2ee
.	2D	.	4dd	2F#	2D	4dd	2a	2D	2A	2f#	(4dd
.	.	.	4cc	.	.	4cc	.	.	.	.	4cc)
=15	=15	=15	=15	=15	=15	=15	=15	=15	=15	=15	=15
1ryy	4E	.	2b	2.G	4E	2b	2g	(4E	[2G	2g	2b
.	4D	.	.	.	4D	.	.	4D)	.	.	.
.	4C	6 5	2a	.	4C	2a	4e	(4C	(4G]	(4e	2a
.	4D	.	.	4F#	4D	.	4d	4D)	4F#)	4d)	.
=16	=16	=16	=16	=16	=16	=16	=16	=16	=16	=16	=16
*	*	*	*	*	*	*	*^	*	*	*	*
1ryy	2GG	.	2g	2G	2GG	2g	2B	2d/	2GG	2G	2B	2g
*	*	*	*	*	*	*	*v	*v	*	*	*	*
.	2BB	6	2g	2G	2BB	2g	2d	2BB	2G	2d	2g
=17	=17	=17	=17	=17	=17	=17	=17	=17	=17	=17	=17
1ryy	2C#X	6	2e	2A	2C#X	2e	2A	2C#X	2A	2A	2e
.	2D	.	2f#	2A	2D	2f#	2d	2D	2A	2d	2f#
=18	=18	=18	=18	=18	=18	=18	=18	=18	=18	=18	=18
1ryy	2GG	.	2g	2ryy	2GG	2B	2d	2GG	2B	2d	2g
.	2AA	#	2e	2A	2AA	2e	2c#X	2AA	2A	2c#X	2e
=19	=19	=19	=19	=19	=19	=19	=19	=19	=19	=19	=19
1ryy	2D	.	2d	2F#	2D	2d	2A	(2D	(2F#	(2d	(2d
.	2AA	#	2e	4A	2AA	2e	2c#X	2AA)	4A	2c#X)	2e)
.	.	.	.	4G	.	.	.	.	4G)	.	.
=20	=20	=20	=20	=20	=20	=20	=20	=20	=20	=20	=20
1ryy	2D	.	2d	2F#	2D	2d	2A	2D	2F#	2d	2d
.	2F#	6	2d	2ryy	2F#	2A	2d	2F#	2A	2d	2d
=21	=21	=21	=21	=21	=21	=21	=21	=21	=21	=21	=21
1ryy	4E	.	2g	1ryy	4E	2B	2e	(4E	2B	2e	2g
.	4D	.	.	.	4D	.	.	4D)	.	.	.
.	4C	.	2g	.	4C	4e	[2g	(4C	(4e	[2g	2g
.	4BB	6	.	.	4BB	4d	.	4BB)	4d)	.	.
=22	=22	=22	=22	=22	=22	=22	=22	=22	=22	=22	=22
1ryy	4AA	7	2a	1ryy	4AA	4c	4g]	(4AA	(4c	(4g]	2a
.	4D	.	.	.	4D	4d	4f#	4D)	4d)	4f#)	.
.	4GG	.	2b	.	4GG	2d	2g	(4GG	2d	2g	2b
.	4Fn	2	.	.	4Fn	.	.	4Fn)	.	.	.
=23	=23	=23	=23	=23	=23	=23	=23	=23	=23	=23	=23
1ryy	4E	6	4cc	1ryy	4E	4c	2.g	(4E	(4c	[2g	(4cc
.	4D	6 4	4b	.	4D	4d	.	4D)	4d)	.	4b)
.	4C	6 5	2a	.	4C	4e	.	(4C	(4e	(4g]	2a
.	4D	.	.	.	4D	4d	4f#Xi	4D)	4d)	4f#)	.
=24	=24	=24	=24	=24	=24	=24	=24	=24	=24	=24	=24
1ryy	2GG	.	2g	2ryy	2GG	2B	2d	2GG	2B	2g	2g
*	*	*	*	*	*	*	*	*^	*	*	*
.	2GG	.	2b	2G	2GG	2b	2d	2G	2GG	2G	2d	2b
=25	=25	=25	=25	=25	=25	=25	=25	=25	=25	=25	=25	=25
1ryy	2FF#	6	2a	1ryy	2FF#	2A	1d	2F#	2FF#	2A	2d	2a
*	*	*	*	*	*	*	*	*v	*v	*	*	*
.	2BB	6	2g	.	2BB	2B	.	2BB	2B	2d	2g
=26	=26	=26	=26	=26	=26	=26	=26	=26	=26	=26	=26
1ryy	2C	.	2e	2G	2C	2e	1c	2C	2G	2c	2e
.	2AA	6	2f#	2A	2AA	2f#	.	2AA	2A	2c	2f#
=27	=27	=27	=27	=27	=27	=27	=27	=27	=27	=27	=27
1ryy	4BB	6	4g	4G	4BB	4g	2.d	(4BB	(4G	[2d	(4g
.	4GG	7 5	4f#	4ryy	4GG	4B	.	4GG)	4B)	.	4f#)
.	2AA	4	2e	4E	2AA	2e	.	2AA	(4E	(4d]	2e
.	.	.	.	4G	.	.	4c#X	.	4G)	4c#X)	.
=28	=28	=28	=28	=28	=28	=28	=28	=28	=28	=28	=28
1ryy	2D	#	2d	2F#	2D	2d	2A	2D	2F#	2d	2d
.	4BB	.	2d	2F#	4BB	2d	[2d	(4BB	2F#	[2d	2d
.	4AA	.	.	.	4AA	.	.	4AA)	.	.	.
=29	=29	=29	=29	=29	=29	=29	=29	=29	=29	=29	=29
1ryy	4GG	6 5	2e	1ryy	4GG	4B	4d]	(4GG	(4B	(4d]	2e
.	4AA	3	.	.	4AA	2A	2c	4AA)	2A)	2c)	.
*	*	*	*	*	*	*	*	*^	*	*	*
.	4FF#	5	2d	.	4FF#	.	.	4F#	4FF#	.	.	2d
.	4GG	3	.	.	4GG	4G	4B	4G	4GG	4G	4B	.
*	*	*	*	*	*	*	*	*v	*v	*	*	*
=30	=30	=30	=30	=30	=30	=30	=30	=30	=30	=30	=30
1ryy	4C	.	2e	2G	4C	2e	2.c	(4C	2G	2c	2e
.	4BB	.	.	.	4BB	.	.	4BB)	.	.	.
.	4AA	6	2f#	2A	4AA	2f#	.	(4AA	2A	4c	2f#
.	4C	2	.	.	4C	.	4d	4C)	.	4d	.
=31	=31	=31	=31	=31	=31	=31	=31	=31	=31	=31	=31
1ryy	4BB	6	(2g	2.G	4BB	2g	1d	(4BB	(2.G	(2d	(2g
.	4GG	.	.	.	4GG	.	.	4GG	.	.	.
.	2D	4	2a)	.	2D	2a	.	2D)	.	2c)	2a)
.	.	.	.	4F#	.	.	.	.	4F#)	.	.
=32	=32	=32	=32	=32	=32	=32	=32	=32	=32	=32	=32
2ryy	2GG	3	2g	2G	2GG	2g	2d	2GG	2G	2B	2g
*	*	*	*	*v	*v	*	*	*	*	*	*
*v	*v	*	*	*	*v	*v	*	*	*	*
==	==	==	==	==	==	==	==	==
*-	*-	*-	*-	*-	*-	*-	*-	*-
!!!system-decoration: {(s1,s2,s3,s4)}{(s5,s6)}{(s7,s8)}
!!!RDF**kern: i = editorial accidental
!!!RDF**kern: > = above
!!!RDF**kern: < = below
!!!AGN: chorale
!!!EED: Derek Remeš
!!!EED2: Victor Phan
!!!END: 2023/11/28
!!!ENC: Wolfgang Drescher
!!!EEV: 2023/12/06
!!!title: @{ONM}. @{OTL}